Origami/22x22/apps/rider.svg

<svg width="22" height="22" version="1" xmlns="http://www.w3.org/2000/svg">
 <rect x="1" y="1.5" width="20" height="20" rx="1" ry="1" style="opacity:.2"/>
 <path d="m11 1h-9c-0.554 0-1 0.446-1 1v9h10z" style="fill:#cf4f8c"/>
 <path d="m11 1h9c0.554 0 1 0.446 1 1v9h-10z" style="fill:#6655e4"/>
 <path d="m11 21h-9c-0.554 0-1-0.446-1-1v-9h10z" style="fill:#ff8c2a"/>
 <path d="m11 21h9c0.554 0 1-0.446 1-1v-9h-10z" style="fill:#cf4f8c"/>
 <rect x="4" y="4" width="14" height="14" style="fill:#3f3f3f"/>
 <path d="m6.5 15h4" style="fill:none;opacity:.2;stroke-linecap:round;stroke:#000000"/>
 <path d="m6.5 14.5h4" style="fill:none;stroke-linecap:round;stroke:#ffffff"/>
 <path d="m10.5 11s2.022 0.175 2-2-2-2-2-2m0 4v-4" style="fill:none;opacity:.2;stroke-linecap:round;stroke-linejoin:bevel;stroke:#000000"/>
 <path d="m10.5 10.5s2.022 0.175 2-2-2-2-2-2m0 4v-4" style="fill:none;stroke-linecap:round;stroke-linejoin:bevel;stroke:#ffffff"/>
 <path d="m8.5 11-1-1.5m-1-0.5s2 0.232 2-1-2-1-2-1m0 4v-4" style="fill:none;opacity:.2;stroke-linecap:round;stroke:#000000"/>
 <path d="m8.5 10.5-1-1.5m-1-0.5s2 0.232 2-1-2-1-2-1m0 4v-4" style="fill:none;stroke-linecap:round;stroke:#ffffff"/>
 <path d="m2 1c-0.554 0-1 0.446-1 1v0.5c0-0.554 0.446-1 1-1h18c0.554 0 1 0.446 1 1v-0.5c0-0.554-0.446-1-1-1z" style="fill:#ffffff;opacity:.2"/>
</svg>

<svg xmlns="http://www.w3.org/2000/svg" width="22" height="22" version="1">
 <rect style="opacity:0.2" width="20" height="20" x="1" y="1.5" rx="1" ry="1"/>
 <path style="fill:#cf4f8c" d="M 11,1 H 2 C 1.446,1 1,1.446 1,2 V 11 H 11 Z"/>
 <path style="fill:#6655e4" d="M 11,1 H 20 C 20.554,1 21,1.446 21,2 V 11 H 11 Z"/>
 <path style="fill:#ff8c2a" d="M 11,21 H 2 C 1.446,21 1,20.554 1,20 V 11 H 11 Z"/>
 <path style="fill:#cf4f8c" d="M 11,21 H 20 C 20.554,21 21,20.554 21,20 V 11 H 11 Z"/>
 <rect style="fill:#3f3f3f" width="14" height="14" x="4" y="4"/>
 <path style="opacity:0.2;fill:none;stroke:#000000;stroke-linecap:round" d="M 6.5,15 H 10.5"/>
 <path style="fill:none;stroke:#ffffff;stroke-linecap:round" d="M 6.5,14.5 H 10.5"/>
 <path style="opacity:0.2;fill:none;stroke:#000000;stroke-linecap:round;stroke-linejoin:bevel" d="M 10.5,11 C 10.5,11 12.522,11.175 12.5,9 12.478,6.825 10.5,7 10.5,7 M 10.5,11 V 7"/>
 <path style="fill:none;stroke:#ffffff;stroke-linecap:round;stroke-linejoin:bevel" d="M 10.5,10.5 C 10.5,10.5 12.522,10.675 12.5,8.5 12.478,6.325 10.5,6.5 10.5,6.5 M 10.5,10.5 V 6.5"/>
 <path style="opacity:0.2;fill:none;stroke:#000000;stroke-linecap:round" d="M 8.5,11 7.5,9.5 M 6.5,9 C 6.5,9 8.5,9.232 8.5,8 8.5,6.768 6.5,7 6.5,7 M 6.5,11 V 7"/>
 <path style="fill:none;stroke:#ffffff;stroke-linecap:round" d="M 8.5,10.5 7.5,9 M 6.5,8.5 C 6.5,8.5 8.5,8.732 8.5,7.5 8.5,6.268 6.5,6.5 6.5,6.5 M 6.5,10.5 V 6.5"/>
 <path style="opacity:0.2;fill:#ffffff" d="M 2,1 C 1.446,1 1,1.446 1,2 V 2.5 C 1,1.946 1.446,1.5 2,1.5 H 20 C 20.554,1.5 21,1.946 21,2.5 V 2 C 21,1.446 20.554,1 20,1 Z"/>
</svg>
